src/components/Home/icons/rocket.svg

<svg width="25" height="24" viewBox="0 0 25 24" xmlns="http://www.w3.org/2000/svg">
  <path d="M13.0795 7.979C13.2935 7.76495 13.5476 7.59515 13.8273 7.4793C14.107 7.36346 14.4067 7.30383 14.7095 7.30383C15.0122 7.30383 15.3119 7.36346 15.5916 7.4793C15.8713 7.59515 16.1254 7.76495 16.3395 7.979C16.5535 8.19306 16.7233 8.44718 16.8392 8.72685C16.955 9.00653 17.0146 9.30628 17.0146 9.609C17.0146 9.91172 16.955 10.2115 16.8392 10.4912C16.7233 10.7708 16.5535 11.0249 16.3395 11.239C15.9072 11.6713 15.3208 11.9142 14.7095 11.9142C14.0981 11.9142 13.5118 11.6713 13.0795 11.239C12.6472 10.8067 12.4043 10.2204 12.4043 9.609C12.4043 8.99763 12.6472 8.4113 13.0795 7.979ZM15.2785 9.039C15.2036 8.96421 15.1148 8.9049 15.017 8.86445C14.9192 8.824 14.8144 8.80321 14.7086 8.80325C14.6028 8.8033 14.498 8.82419 14.4003 8.86472C14.3026 8.90526 14.2138 8.96465 14.139 9.0395C13.9879 9.19067 13.9031 9.39566 13.9032 9.60935C13.9033 9.71517 13.9242 9.81993 13.9647 9.91767C14.0052 10.0154 14.0646 10.1042 14.1395 10.179C14.2906 10.33 14.4956 10.4148 14.7093 10.4147C14.923 10.4147 15.1279 10.3297 15.279 10.1785C15.43 10.0273 15.5148 9.82235 15.5147 9.60865C15.5146 9.39495 15.4296 9.19004 15.2785 9.039Z" />
  <path d="M20.9352 4.04298C20.9159 3.87457 20.8402 3.71765 20.7203 3.5978C20.6005 3.47794 20.4436 3.40222 20.2752 3.38298C18.3781 3.16388 16.4561 3.37679 14.6529 4.00577C12.8498 4.63475 11.2124 5.66349 9.86317 7.01498C9.20785 7.66924 8.62606 8.39321 8.12817 9.17397C6.43151 9.23949 4.82231 9.94389 3.62317 11.146C3.13111 11.6386 2.71762 12.2038 2.39717 12.822C2.33238 12.9474 2.30429 13.0885 2.31611 13.2291C2.32794 13.3697 2.3792 13.5042 2.46401 13.617C2.54882 13.7298 2.66374 13.8164 2.79555 13.8668C2.92737 13.9172 3.07073 13.9294 3.20917 13.902C4.4017 13.6643 5.63795 13.7862 6.76117 14.252L10.0632 17.552C10.5294 18.6758 10.6512 19.9128 10.4132 21.106C10.3857 21.2444 10.3977 21.3877 10.448 21.5195C10.4983 21.6513 10.5848 21.7663 10.6974 21.8512C10.8101 21.9361 10.9445 21.9875 11.0851 21.9995C11.2256 22.0115 11.3667 21.9836 11.4922 21.919C12.1107 21.5983 12.6763 21.1845 13.1692 20.692C14.3708 19.4933 15.0752 17.8849 15.1412 16.189C15.9227 15.6906 16.6474 15.1081 17.3022 14.452C18.6534 13.1032 19.6821 11.4663 20.3112 9.66371C20.9404 7.86115 21.1537 5.93963 20.9352 4.04298ZM13.5212 17.061C13.2986 18.073 12.7787 18.9955 12.0282 19.71C12.0106 19.0326 11.9037 18.3604 11.7102 17.711C12.3292 17.5407 12.9343 17.3234 13.5202 17.061M6.60417 12.605C5.9545 12.4107 5.28202 12.3031 4.60417 12.285L4.68317 12.206C5.38781 11.4993 6.27991 11.009 7.25417 10.793C6.99017 11.3836 6.7735 11.9876 6.60417 12.605ZM10.9232 8.07498C12.0398 6.95581 13.3816 6.0869 14.8597 5.52589C16.3377 4.96487 17.9182 4.72459 19.4962 4.82098C19.592 6.39855 19.3513 7.97847 18.7902 9.45597C18.229 10.9335 17.3601 12.2748 16.2412 13.391C14.7939 14.8433 12.9737 15.8676 10.9812 16.351L7.96417 13.334C8.44611 11.3417 9.47028 9.52182 10.9232 8.07598" />
  <path d="M3.34335 20.25C3.35004 20.4395 3.42823 20.6193 3.56218 20.7535C3.69613 20.8876 3.87591 20.9661 4.06535 20.973H4.09735C4.2123 20.9768 4.32734 20.9778 4.44235 20.976C4.66435 20.973 4.97035 20.963 5.29935 20.932C5.62535 20.902 5.99535 20.849 6.33935 20.755C6.65935 20.667 7.06035 20.515 7.35235 20.223C7.5664 20.009 7.7362 19.7548 7.85204 19.4752C7.96789 19.1955 8.02751 18.8957 8.02751 18.593C8.02751 18.2903 7.96789 17.9905 7.85204 17.7109C7.7362 17.4312 7.5664 17.1771 7.35235 16.963C7.13829 16.749 6.88417 16.5792 6.6045 16.4633C6.32482 16.3475 6.02506 16.2878 5.72235 16.2878C5.11098 16.2878 4.52465 16.5307 4.09235 16.963C3.80035 17.255 3.64935 17.656 3.56135 17.977C3.47159 18.3178 3.41202 18.6658 3.38335 19.017C3.3481 19.4166 3.33475 19.8179 3.34335 20.219V20.25ZM5.15335 18.024C5.30425 17.873 5.50898 17.7881 5.72249 17.788C5.936 17.7879 6.1408 17.8726 6.29185 18.0235C6.44289 18.1744 6.52779 18.3791 6.52789 18.5927C6.52798 18.8062 6.44325 19.011 6.29235 19.162C6.26567 19.183 6.23643 19.2004 6.20535 19.214C6.11998 19.2534 6.0313 19.2852 5.94035 19.309C5.68419 19.3729 5.42337 19.4163 5.16035 19.439C5.05501 19.449 4.95301 19.4567 4.85435 19.462C4.85968 19.3633 4.86735 19.2613 4.87735 19.156C4.90335 18.876 4.94535 18.601 5.00735 18.376C5.03801 18.2633 5.06935 18.175 5.10135 18.111C5.11492 18.0799 5.13239 18.0507 5.15335 18.024Z" />
</svg>

<svg xmlns="http://www.w3.org/2000/svg" width="25" height="24">
  <path d="M13.08 7.979a2.304 2.304 0 1 1 3.259 3.258 2.304 2.304 0 0 1-3.26-3.258Zm2.198 1.06a.806.806 0 1 0-1.139 1.14.806.806 0 0 0 1.14-1.14Z"/>
  <path d="M20.935 4.043a.75.75 0 0 0-.66-.66A12.66 12.66 0 0 0 9.863 7.015a12.7 12.7 0 0 0-1.735 2.159 6.73 6.73 0 0 0-4.505 1.972 6.799 6.799 0 0 0-1.226 1.676.75.75 0 0 0 .812 1.08 6.14 6.14 0 0 1 3.552.35l3.302 3.3a6.14 6.14 0 0 1 .35 3.554.75.75 0 0 0 1.08.813 6.803 6.803 0 0 0 1.676-1.227 6.73 6.73 0 0 0 1.972-4.503 12.705 12.705 0 0 0 2.161-1.737 12.66 12.66 0 0 0 3.633-10.409Zm-7.414 13.018a5.2 5.2 0 0 1-1.493 2.649 7.701 7.701 0 0 0-.318-1.999c.62-.17 1.224-.388 1.81-.65m-6.916-4.456a7.697 7.697 0 0 0-2-.32l.08-.079a5.229 5.229 0 0 1 2.57-1.413c-.264.59-.48 1.195-.65 1.812Zm4.32-4.53a11.15 11.15 0 0 1 8.572-3.254 11.152 11.152 0 0 1-3.255 8.57 11.13 11.13 0 0 1-5.26 2.96l-3.017-3.017a11.1 11.1 0 0 1 2.96-5.258"/>
  <path d="M3.343 20.25a.75.75 0 0 0 .722.723h.032a10.827 10.827 0 0 0 1.202-.041c.326-.03.696-.083 1.04-.177.32-.088.721-.24 1.013-.532a2.305 2.305 0 1 0-3.26-3.26c-.292.292-.443.693-.53 1.014a6 6 0 0 0-.179 1.04c-.035.4-.048.8-.04 1.202v.031Zm1.81-2.226a.805.805 0 0 1 1.14 1.138.4.4 0 0 1-.088.052c-.085.04-.174.071-.265.095a4.998 4.998 0 0 1-.78.13c-.105.01-.207.018-.306.023.006-.099.013-.2.023-.306.026-.28.068-.555.13-.78.031-.113.062-.201.094-.265a.4.4 0 0 1 .052-.087Z"/>
</svg>
